icons/cervical_cancer_fill.svg

<svg width="48" height="48" viewBox="0 0 48 48" fill="none" xmlns="http://www.w3.org/2000/svg">
<path d="M22.7203 11.4C22.6695 11.4 22.6207 11.4212 22.5848 11.4589C22.1183 11.9487 22.0986 12.7362 22.5399 13.251L24.0002 14.9546L25.4604 13.251C25.9017 12.7362 25.882 11.9487 25.4155 11.4589C25.3796 11.4212 25.3309 11.4 25.28 11.4H22.7203Z" fill="black"/>
<path fill-rule="evenodd" clip-rule="evenodd" d="M37.295 6H10.705C7.57899 13.8479 5.99214 20.1062 6.00003 25.8515C6.00774 31.4661 7.53757 36.5114 10.5043 42.0001H37.4957C40.4624 36.5114 41.9923 31.4661 42 25.8515C42.0079 20.1062 40.421 13.8479 37.295 6ZM25.1533 16.3L26.7346 14.4552C27.7858 13.2287 27.7389 11.3529 26.6277 10.1861C26.2703 9.81084 25.7855 9.6 25.28 9.6H22.7203C22.2148 9.6 21.73 9.81084 21.3726 10.1861C20.2614 11.3529 20.2145 13.2287 21.2657 14.4552L22.847 16.3L19.0773 20.6979L20.3515 21.9021L24.0002 17.6454L27.6488 21.9021L28.923 20.6979L25.1533 16.3ZM24.8571 31.5462L31.8792 24.1731L30.667 22.9003L24 29.9006L17.333 22.9003L16.1208 24.1731L23.1429 31.5462V41.9999H24.8571V31.5462Z" fill="black"/>
</svg>

<svg
  xmlns="http://www.w3.org/2000/svg"
  width="24"
  height="24"
  viewBox="0 0 24 24"
  fill="none"
  stroke="currentColor"
  stroke-width="2"
  stroke-linecap="round"
  stroke-linejoin="round"
>
  <path d="M22.72 11.4c-.05 0-.1.021-.135.059a1.35 1.35 0 0 0-.045 1.792L24 14.955l1.46-1.704a1.35 1.35 0 0 0-.044-1.792.19.19 0 0 0-.136-.059z" />
  <path
    fill-rule="evenodd"
    d="M37.295 6h-26.59C7.579 13.848 5.992 20.106 6 25.852c.008 5.614 1.538 10.66 4.504 16.148h26.992c2.966-5.489 4.496-10.534 4.504-16.148.008-5.746-1.579-12.004-4.705-19.852M25.153 16.3l1.582-1.845c1.05-1.226 1.004-3.102-.107-4.269A1.86 1.86 0 0 0 25.28 9.6h-2.56c-.505 0-.99.21-1.347.586-1.112 1.167-1.158 3.043-.107 4.27l1.581 1.844-3.77 4.398 1.274 1.204 3.65-4.257 3.648 4.257 1.274-1.204zm-.296 15.246 7.022-7.373-1.212-1.273-6.667 7-6.667-7-1.212 1.273 7.022 7.373V42h1.714z"
    clip-rule="evenodd"
  />
</svg>
